assets/02_eyes/Eye 14.svg

<svg width="400" height="180" viewBox="0 0 400 180" fill="none" xmlns="http://www.w3.org/2000/svg">
<g clip-path="url(#clip0_70_916)">
<path d="M289 45C289 94.1468 249.163 134 200.01 134C150.858 134 111 94.1468 111 45H289Z" fill="white"/>
<path d="M200.01 45.0206C224.584 45.0206 244.505 64.9393 244.505 89.5103C244.505 114.081 224.584 134 200.01 134C175.437 134 155.516 114.081 155.516 89.5103C155.516 64.9393 175.437 45.0206 200.01 45.0206Z" fill="black"/>
<path d="M212.252 85.3066C222.2 85.3066 230.264 93.37 230.264 103.317C230.264 113.263 222.2 121.327 212.252 121.327C202.304 121.327 194.24 113.263 194.24 103.317C194.24 93.37 202.304 85.3066 212.252 85.3066Z" fill="white"/>
<path d="M188.778 62.495C194.674 62.495 199.454 67.274 199.454 73.1692C199.454 79.0645 194.674 83.8435 188.778 83.8435C182.883 83.8435 178.103 79.0645 178.103 73.1692C178.103 67.274 182.883 62.495 188.778 62.495Z" fill="white"/>
</g>
<defs>
<clipPath id="clip0_70_916">
<rect width="178" height="89" fill="white" transform="matrix(1 0 0 -1 111 134)"/>
</clipPath>
</defs>
</svg>

<svg xmlns="http://www.w3.org/2000/svg" width="400" height="180" fill="none" viewBox="0 0 400 180"><g clip-path="url(#a)"><path fill="#fff" d="M289 45c0 49.147-39.837 89-88.99 89S111 94.147 111 45z"/><path fill="#000" d="M200.01 45.02c24.574 0 44.495 19.92 44.495 44.49 0 24.571-19.921 44.49-44.495 44.49s-44.494-19.919-44.494-44.49c0-24.57 19.921-44.49 44.494-44.49"/><path fill="#fff" d="M212.252 85.307c9.948 0 18.012 8.063 18.012 18.01 0 9.946-8.064 18.01-18.012 18.01s-18.012-8.064-18.012-18.01 8.064-18.01 18.012-18.01m-23.474-22.812c5.896 0 10.676 4.779 10.676 10.674s-4.78 10.675-10.676 10.675c-5.895 0-10.675-4.78-10.675-10.675s4.78-10.674 10.675-10.674"/></g><defs><clipPath id="a"><path fill="#fff" d="M111 134h178V45H111z"/></clipPath></defs></svg>
